Dominus_Dark_Funeral/22/apps/gparted.svg

<svg xmlns="http://www.w3.org/2000/svg" width="24" height="24" viewBox="0 0 6.35 6.35"><path d="M1.13.26C.92.26.68.5.68.71v4.93c0 .22.24.45.45.45h4.09c.21 0 .45-.23.45-.45V.7c0-.22-.24-.45-.45-.45zm2.05.84a1.65 1.65 0 0 1 1.66 1.66 1.65 1.65 0 0 1-2.2 1.57l.46-.58a.1.1 0 0 0-.08-.16.1.1 0 0 0-.06.02l-.7.54a1.68 1.68 0 0 1-.75-1.4A1.65 1.65 0 0 1 3.18 1.1zm0 1.24a.42.42 0 1 0 0 .84.42.42 0 0 0 0-.84zM1.72 4.42a.62.62 0 0 1 .16.02l-.25.2a.3.3 0 0 0-.12.23c0 .16.14.3.3.3a.3.3 0 0 0 .25-.12l.22-.28a.62.62 0 0 1 .06.28.62.62 0 0 1-.62.62.62.62 0 0 1-.62-.62.62.62 0 0 1 .62-.63z" fill="#e6e6e6"/></svg>

<?xml version="1.0" encoding="UTF-8" standalone="no"?>
<svg
   xmlns:dc="http://purl.org/dc/elements/1.1/"
   xmlns:cc="http://creativecommons.org/ns#"
   xmlns:rdf="http://www.w3.org/1999/02/22-rdf-syntax-ns#"
   xmlns:svg="http://www.w3.org/2000/svg"
   xmlns="http://www.w3.org/2000/svg"
   xmlns:sodipodi="http://sodipodi.sourceforge.net/DTD/sodipodi-0.dtd"
   xmlns:inkscape="http://www.inkscape.org/namespaces/inkscape"
   width="24"
   height="24"
   viewBox="0 0 6.35 6.35"
   version="1.1"
   id="svg4"
   sodipodi:docname="gparted.svg"
   inkscape:version="0.92.4 (5da689c313, 2019-01-14)">
  <metadata
     id="metadata10">
    <rdf:RDF>
      <cc:Work
         rdf:about="">
        <dc:format>image/svg+xml</dc:format>
        <dc:type
           rdf:resource="http://purl.org/dc/dcmitype/StillImage" />
        <dc:title></dc:title>
      </cc:Work>
    </rdf:RDF>
  </metadata>
  <defs
     id="defs8" />
  <sodipodi:namedview
     pagecolor="#ffffff"
     bordercolor="#666666"
     borderopacity="1"
     objecttolerance="10"
     gridtolerance="10"
     guidetolerance="10"
     inkscape:pageopacity="0"
     inkscape:pageshadow="2"
     inkscape:window-width="1138"
     inkscape:window-height="480"
     id="namedview6"
     showgrid="false"
     inkscape:zoom="9.8333333"
     inkscape:cx="1.0677966"
     inkscape:cy="12"
     inkscape:window-x="0"
     inkscape:window-y="25"
     inkscape:window-maximized="0"
     inkscape:current-layer="svg4" />
  <path
     d="M 1.13,0.26 C 0.92,0.26 0.68,0.5 0.68,0.71 v 4.93 c 0,0.22 0.24,0.45 0.45,0.45 h 4.09 c 0.21,0 0.45,-0.23 0.45,-0.45 V 0.7 C 5.67,0.48 5.43,0.25 5.22,0.25 Z M 3.18,1.1 A 1.65,1.65 0 0 1 4.84,2.76 1.65,1.65 0 0 1 2.64,4.33 L 3.1,3.75 A 0.1,0.1 0 0 0 3.02,3.59 0.1,0.1 0 0 0 2.96,3.61 L 2.26,4.15 A 1.68,1.68 0 0 1 1.51,2.75 1.65,1.65 0 0 1 3.18,1.1 Z m 0,1.24 a 0.42,0.42 0 1 0 0,0.84 0.42,0.42 0 0 0 0,-0.84 z M 1.72,4.42 A 0.62,0.62 0 0 1 1.88,4.44 L 1.63,4.64 A 0.3,0.3 0 0 0 1.51,4.87 c 0,0.16 0.14,0.3 0.3,0.3 A 0.3,0.3 0 0 0 2.06,5.05 L 2.28,4.77 A 0.62,0.62 0 0 1 2.34,5.05 0.62,0.62 0 0 1 1.72,5.67 0.62,0.62 0 0 1 1.1,5.05 0.62,0.62 0 0 1 1.72,4.42 Z"
     id="path2"
     inkscape:connector-curvature="0"
     style="fill:#e6e6e6" />
</svg>
